X: 43204
T: Wissahickon Drive
R: reel
M: 4/4
K: Amajor
|:EFAB cBAB|ceef ecBA|F2dF eFdF|fedf ecBA|
EFAB cBAB|ceef ecBA|~f3a fecA|1 BABc ~A2AF:|2 BABc ABce||
|:a2ga baga|~f2de fagf|ec~c2 acec|fedc BABc|
a2ga baga|~f2de fagf|ec~c2 acec|1 BABc ABce:|2 BABc A2F2||

